X: 8
U:~=!turn!
M:C|
L:1/8
K:G
E | (D<B,) DE G<D D2 | {/E}D<B, DE G<B, A,2 | {/E}D<B, DE G<D D2 | .D.E .D.E .F.G .G :: c<B G/G/G BG G2 |
e<d B<g B<d B<g | de de fg g2 :: e>d e>d c>B G<G | BA DD BA DD | de dc B<G G2 | BA DE FG G2 :|


